soy-cutie.svg

<svg clip-rule="evenodd" fill-rule="evenodd" stroke-linejoin="round" stroke-miterlimit="2" viewBox="0 0 174 198" xmlns="http://www.w3.org/2000/svg"><g fill-rule="nonzero" transform="translate(-28 -11.01)"><path d="m57.39 46.45c2.01 4.23 3.99 8.49 5.91 12.76-10.93-1.96-21.76-4.44-32.62-6.71.28-.06.85-.17 1.13-.22 8.53-1.88 17.31-2.88 25.58-5.83z" fill="#c8c9ca"/><path d="m48 11.01h135c-.07 5.5.1 11 .12 16.5 2.36 4.05 4.87 8.01 7.14 12.11 3.53 6 7.02 12.03 10.71 17.93.07 50.48.01 100.96.03 151.45-46.5-.07-93.01.08-139.51-.08-11.04-4.69-22.33-8.81-33.49-13.22v-145.17c6.8-7.54 13.45-15.22 19.99-22.99.02-5.51.01-11.02.01-16.53m2.02 3.38c-.06 5.46-.38 10.93.04 16.38-6.34 6.92-12.87 13.8-18.25 21.51-.28.05-.85.16-1.13.22.46 12.76-.41 25.56.45 38.3-.54 7.58-.16 15.17-.24 22.76-.07 13.16-.04 26.32-.05 39.48.17 1.28-.26 3.08 1.21 3.76l-1.14-.4c-.1 12.3.05 24.6-.08 36.9 10.24 4.31 20.64 8.22 31.03 12.13.44.2 1.32.59 1.76.78 44.87-.06 89.74 0 134.61-.03-.07-12.94-.07-25.88 0-38.83 0-14.86.01-29.72 0-44.58-.05-21.06-.11-42.12.03-63.17-5.65-9.61-11.18-19.29-17.02-28.78-.14-5.31.25-10.63-.12-15.93-1.17-.81-2.79-.34-4.14-.51-42.32.09-84.64.07-126.96.01z" fill="#9c9e9e"/><path d="m50.02 14.39c42.32.06 84.64.08 126.96-.01 1.35.17 2.97-.3 4.14.51.37 5.3-.02 10.62.12 15.93-41.4.27-82.82.05-124.23.08-2.23.11-4.45.41-6.67.71-.07-.21-.21-.63-.28-.84-.42-5.45-.1-10.92-.04-16.38z" fill="#e9eaeb"/><path d="m31.81 52.28c5.38-7.71 11.91-14.59 18.25-21.51.07.21.21.63.28.84 2.22 5.01 4.72 9.88 7.05 14.84-8.27 2.95-17.05 3.95-25.58 5.83z" fill="#b7b7b8"/><path d="m50.34 31.61c2.22-.3 4.44-.6 6.67-.71 41.41-.03 82.83.19 124.23-.08 5.84 9.49 11.37 19.17 17.02 28.78-31.74.54-63.5.14-95.25.25-13.11-.82-26.27-.97-39.4-.43.54 16.86.02 33.73.33 50.59.11 4.21-.16 8.41-.78 12.58-9.41-2.54-18.76-5.31-28.15-7.9-.2-.05-.6-.16-.79-.22-.66-7.93-1.85-15.81-3.09-23.67-.86-12.74.01-25.54-.45-38.3 10.86 2.27 21.69 4.75 32.62 6.71-1.92-4.27-3.9-8.53-5.91-12.76-2.33-4.96-4.83-9.83-7.05-14.84z" fill="#f2f2f3"/><path d="m45.25 169.68c-.99-2.94-1.51-6.02-1.93-9.09 6.62 2.19 13.17 4.6 19.85 6.56.49 3.59.82 7.21.75 10.83-.16 9.41.09 18.83-.3 28.23-.44-.19-1.32-.58-1.76-.78-7.12-11.1-12.42-23.27-16.61-35.75z" fill="#f2f2f3"/><g fill="#fff"><path d="m63.61 59.42c13.13-.54 26.29-.39 39.4.43 31.75-.11 63.51.29 95.25-.25-.14 21.05-.08 42.11-.03 63.17-44.85-.09-89.69.12-134.53-.11-.14-.01-.41-.05-.54-.07.62-4.17.89-8.37.78-12.58-.31-16.86.21-33.73-.33-50.59m18.66 33.48c-3.69 2.88-7.47 8.26-3.97 12.74 5.49 7.16 18.89 2.24 17.98-6.95 4.97-1.26 9.06-5.49 9.66-10.65 1.28-8.37-8.25-15.69-16.07-12.9-7.02 2.23-10.77 11.15-7.6 17.76m71.48-.55c2.01 4.22 6.78 6.23 11.21 6.62-.38 7.58 9.09 11.69 15.16 8.26 2.98-1.57 5.57-5.11 4.4-8.59-1.15-3.63-4.97-5.11-8.12-6.57 1.28-2.77 1.64-6 .74-8.93-1.91-5.69-8.3-9.5-14.21-8.39-7.46 1.46-12.48 10.62-9.18 17.6m-19.98-3.74c-5.1.52-10.3.38-15.31-.77-.21 3.15.93 6.05 2.85 8.5 5.11 3.46 12.22 3.78 17.04-.44 1.86-2.49 3.8-5.56 2.76-8.81-2.53-.12-4.85 1.27-7.34 1.52z"/><path d="m84.87 81.99c.54-2.33 4.47-2.77 5.31-.49.56 2.11 1.52 4.06 2.48 6.02-1.97 1.62-2.63-.72-3.5-2.09-2.08 1.94-5.61-1.1-4.29-3.44z"/><path d="m157.39 80.51c1.88-1.73 5.68-.3 5.2 2.44.13 2.18-3.07 3.8-4.72 2.3-1.7-.94-1.69-3.42-.48-4.74z"/><path d="m163.49 85.62c1.58-.86 2.87 3.12.45 2.39-1.65.85-1.58-2.02-.45-2.39z"/><path d="m63.17 167.15.5.09c44.85.29 89.71.06 134.56.11-.07 12.95-.07 25.89 0 38.83-44.87.03-89.74-.03-134.61.03.39-9.4.14-18.82.3-28.23.07-3.62-.26-7.24-.75-10.83z"/></g><path d="m82.27 92.9c-3.17-6.61.58-15.53 7.6-17.76 7.82-2.79 17.35 4.53 16.07 12.9-.6 5.16-4.69 9.39-9.66 10.65-5.28.79-11.01-1.23-14.01-5.79m2.6-10.91c-1.32 2.34 2.21 5.38 4.29 3.44.87 1.37 1.53 3.71 3.5 2.09-.96-1.96-1.92-3.91-2.48-6.02-.84-2.28-4.77-1.84-5.31.49z" fill="#54351d"/><path d="m153.75 92.35c-3.3-6.98 1.72-16.14 9.18-17.6 5.91-1.11 12.3 2.7 14.21 8.39.9 2.93.54 6.16-.74 8.93-2.3 4.14-6.67 6.86-11.44 6.9-4.43-.39-9.2-2.4-11.21-6.62m3.64-11.84c-1.21 1.32-1.22 3.8.48 4.74 1.65 1.5 4.85-.12 4.72-2.3.48-2.74-3.32-4.17-5.2-2.44m6.1 5.11c-1.13.37-1.2 3.24.45 2.39 2.42.73 1.13-3.25-.45-2.39z" fill="#54351d"/><path d="m133.77 88.61c2.49-.25 4.81-1.64 7.34-1.52 1.04 3.25-.9 6.32-2.76 8.81-2.53-1.77-5.1-4.09-8.4-4.03-3.45-.01-6.05 2.55-8.64 4.47-1.92-2.45-3.06-5.35-2.85-8.5 5.01 1.15 10.21 1.29 15.31.77z" fill="#54351d"/><path d="m31.13 90.8c1.24 7.86 2.43 15.74 3.09 23.67-.83-.23-2.5-.69-3.33-.91.08-7.59-.3-15.18.24-22.76z" fill="#d6d6d7"/><path d="m30.91 156.4 1.14.4c3.59 1.28 7.24 2.36 10.83 3.64.11.04.33.11.44.15.42 3.07.94 6.15 1.93 9.09 4.19 12.48 9.49 24.65 16.61 35.75-10.39-3.91-20.79-7.82-31.03-12.13.13-12.3-.02-24.6.08-36.9z" fill="#d6d6d7"/><path d="m121.31 96.34c2.59-1.92 5.19-4.48 8.64-4.47 3.3-.06 5.87 2.26 8.4 4.03-4.82 4.22-11.93 3.9-17.04.44m7.17-3.1c.39 1.47 3.21 1.44 4.45.89-.12-1.75-3.29-1.79-4.45-.89z" fill="#f2728e"/><path d="m164.96 98.97c4.77-.04 9.14-2.76 11.44-6.9 3.15 1.46 6.97 2.94 8.12 6.57 1.17 3.48-1.42 7.02-4.4 8.59-6.07 3.43-15.54-.68-15.16-8.26z" fill="#f7cde0"/><path d="m82.27 92.9c3 4.56 8.73 6.58 14.01 5.79.91 9.19-12.49 14.11-17.98 6.95-3.5-4.48.28-9.86 3.97-12.74z" fill="#f7cde0"/><path d="m128.48 93.24c1.16-.9 4.33-.86 4.45.89-1.24.55-4.06.58-4.45-.89z" fill="#f7a0b0"/><path d="m30.89 113.56c.83.22 2.5.68 3.33.91.19.06.59.17.79.22 1.43 15.43 4.71 30.6 7.87 45.75-3.59-1.28-7.24-2.36-10.83-3.64-1.47-.68-1.04-2.48-1.21-3.76.01-13.16-.02-26.32.05-39.48z" fill="#669f9e"/><path d="m35.01 114.69c9.39 2.59 18.74 5.36 28.15 7.9.13.02.4.06.54.07-.24 14.86-.21 29.72-.03 44.58l-.5-.09c-6.68-1.96-13.23-4.37-19.85-6.56-.11-.04-.33-.11-.44-.15-3.16-15.15-6.44-30.32-7.87-45.75z" fill="#79b2b2"/><path d="m63.7 122.66c44.84.23 89.68.02 134.53.11.01 14.86 0 29.72 0 44.58-44.85-.05-89.71.18-134.56-.11-.18-14.86-.21-29.72.03-44.58m30.77 5.08c-5.83.93-9.57 7.44-7.08 12.88 2.52 5.05 8.66 5.75 13.51 7.15 2.62.52 5.81 2.08 5.68 5.22-1.43 5.45-10.19 6.31-12.86 1.44-1.42-1.92-2.51-5.98-5.68-4.56-3.1 1.25-2.02 5.37-.47 7.5 4.09 6.15 12.81 6.43 19.18 4.29 6.39-2.05 9-10.95 4.65-16.06-4.18-4.2-10.61-3.96-15.71-6.35-1.61-.72-3.01-2.67-2.04-4.41 1.65-2.61 5.25-3.06 8.02-2.31 3.4.88 3.72 5.73 7.16 6.42 3.72-.48 3.74-5.15 1.7-7.45-3.78-4.66-10.62-5.12-16.06-3.76m34.98-.06c-5.92 1.17-10.27 6.42-11.31 12.21-1.6 7.61.31 17.28 7.84 21.07 7.7 3.69 18.99 2.29 23.22-5.92 3.2-6.42 3.18-14.63-.41-20.9-3.93-6.43-12.43-8.15-19.34-6.46m23.43 3.29c2.35 5.92 6.91 10.66 9.77 16.33 1.01 4.36-.33 8.99.75 13.36.72 2.83 5.43 2.86 6.5.25.89-4.43-.29-9.02.63-13.42 2.8-5.09 6.48-9.65 9.33-14.72.46-1.02 1.19-2.2.7-3.34-.5-2.57-4.63-3.02-5.78-.66-2.87 4.06-5.22 8.46-7.98 12.6-2.85-4.23-5.13-8.84-8.2-12.91-1.81-2.58-6.69-.65-5.72 2.51z" fill="#89d2d5"/><path d="m131.23 133.39c3.66-1.11 8.17-.36 10.52 2.89 3.04 4.24 3.15 10.08 1.42 14.86-1.38 3.72-5.23 6.38-9.25 5.9-5.18.02-8.67-5.13-8.88-9.91-.65-5.15.77-11.74 6.19-13.74z" fill="#89d2d5"/><path d="m94.47 127.74c5.44-1.36 12.28-.9 16.06 3.76 2.04 2.3 2.02 6.97-1.7 7.45-3.44-.69-3.76-5.54-7.16-6.42-2.77-.75-6.37-.3-8.02 2.31-.97 1.74.43 3.69 2.04 4.41 5.1 2.39 11.53 2.15 15.71 6.35 4.35 5.11 1.74 14.01-4.65 16.06-6.37 2.14-15.09 1.86-19.18-4.29-1.55-2.13-2.63-6.25.47-7.5 3.17-1.42 4.26 2.64 5.68 4.56 2.67 4.87 11.43 4.01 12.86-1.44.13-3.14-3.06-4.7-5.68-5.22-4.85-1.4-10.99-2.1-13.51-7.15-2.49-5.44 1.25-11.95 7.08-12.88z" fill="#3b5656"/><path d="m129.45 127.68c6.91-1.69 15.41.03 19.34 6.46 3.59 6.27 3.61 14.48.41 20.9-4.23 8.21-15.52 9.61-23.22 5.92-7.53-3.79-9.44-13.46-7.84-21.07 1.04-5.79 5.39-11.04 11.31-12.21m1.78 5.71c-5.42 2-6.84 8.59-6.19 13.74.21 4.78 3.7 9.93 8.88 9.91 4.02.48 7.87-2.18 9.25-5.9 1.73-4.78 1.62-10.62-1.42-14.86-2.35-3.25-6.86-4-10.52-2.89z" fill="#3b5656"/><path d="m152.88 130.97c-.97-3.16 3.91-5.09 5.72-2.51 3.07 4.07 5.35 8.68 8.2 12.91 2.76-4.14 5.11-8.54 7.98-12.6 1.15-2.36 5.28-1.91 5.78.66.49 1.14-.24 2.32-.7 3.34-2.85 5.07-6.53 9.63-9.33 14.72-.92 4.4.26 8.99-.63 13.42-1.07 2.61-5.78 2.58-6.5-.25-1.08-4.37.26-9-.75-13.36-2.86-5.67-7.42-10.41-9.77-16.33z" fill="#3b5656"/></g></svg>

<?xml version="1.0" encoding="UTF-8" standalone="no"?>
<!DOCTYPE svg PUBLIC "-//W3C//DTD SVG 1.1//EN" "http://www.w3.org/Graphics/SVG/1.1/DTD/svg11.dtd">
<svg width="100%" height="100%" viewBox="0 0 174 198" version="1.1" xmlns="http://www.w3.org/2000/svg" xmlns:xlink="http://www.w3.org/1999/xlink" xml:space="preserve" xmlns:serif="http://www.serif.com/" style="fill-rule:evenodd;clip-rule:evenodd;stroke-linejoin:round;stroke-miterlimit:2;">
    <g transform="matrix(1,0,0,1,-28,-11.01)">
        <path d="M57.39,46.45C59.4,50.68 61.38,54.94 63.3,59.21C52.37,57.25 41.54,54.77 30.68,52.5C30.96,52.44 31.53,52.33 31.81,52.28C40.34,50.4 49.12,49.4 57.39,46.45Z" style="fill:rgb(200,201,202);fill-rule:nonzero;"/>
        <path d="M48,11.01L183,11.01C182.93,16.51 183.1,22.01 183.12,27.51C185.48,31.56 187.99,35.52 190.26,39.62C193.79,45.62 197.28,51.65 200.97,57.55C201.04,108.03 200.98,158.51 201,209C154.5,208.93 107.99,209.08 61.49,208.92C50.45,204.23 39.16,200.11 28,195.7L28,50.53C34.8,42.99 41.45,35.31 47.99,27.54C48.01,22.03 48,16.52 48,11.01M50.02,14.39C49.96,19.85 49.64,25.32 50.06,30.77C43.72,37.69 37.19,44.57 31.81,52.28C31.53,52.33 30.96,52.44 30.68,52.5C31.14,65.26 30.27,78.06 31.13,90.8C30.59,98.38 30.97,105.97 30.89,113.56C30.82,126.72 30.85,139.88 30.84,153.04C31.01,154.32 30.58,156.12 32.05,156.8L30.91,156.4C30.81,168.7 30.96,181 30.83,193.3C41.07,197.61 51.47,201.52 61.86,205.43C62.3,205.63 63.18,206.02 63.62,206.21C108.49,206.15 153.36,206.21 198.23,206.18C198.16,193.24 198.16,180.3 198.23,167.35C198.23,152.49 198.24,137.63 198.23,122.77C198.18,101.71 198.12,80.65 198.26,59.6C192.61,49.99 187.08,40.31 181.24,30.82C181.1,25.51 181.49,20.19 181.12,14.89C179.95,14.08 178.33,14.55 176.98,14.38C134.66,14.47 92.34,14.45 50.02,14.39Z" style="fill:rgb(156,158,158);fill-rule:nonzero;"/>
        <path d="M50.02,14.39C92.34,14.45 134.66,14.47 176.98,14.38C178.33,14.55 179.95,14.08 181.12,14.89C181.49,20.19 181.1,25.51 181.24,30.82C139.84,31.09 98.42,30.87 57.01,30.9C54.78,31.01 52.56,31.31 50.34,31.61C50.27,31.4 50.13,30.98 50.06,30.77C49.64,25.32 49.96,19.85 50.02,14.39Z" style="fill:rgb(233,234,235);fill-rule:nonzero;"/>
        <path d="M31.81,52.28C37.19,44.57 43.72,37.69 50.06,30.77C50.13,30.98 50.27,31.4 50.34,31.61C52.56,36.62 55.06,41.49 57.39,46.45C49.12,49.4 40.34,50.4 31.81,52.28Z" style="fill:rgb(183,183,184);fill-rule:nonzero;"/>
        <path d="M50.34,31.61C52.56,31.31 54.78,31.01 57.01,30.9C98.42,30.87 139.84,31.09 181.24,30.82C187.08,40.31 192.61,49.99 198.26,59.6C166.52,60.14 134.76,59.74 103.01,59.85C89.9,59.03 76.74,58.88 63.61,59.42C64.15,76.28 63.63,93.15 63.94,110.01C64.05,114.22 63.78,118.42 63.16,122.59C53.75,120.05 44.4,117.28 35.01,114.69C34.81,114.64 34.41,114.53 34.22,114.47C33.56,106.54 32.37,98.66 31.13,90.8C30.27,78.06 31.14,65.26 30.68,52.5C41.54,54.77 52.37,57.25 63.3,59.21C61.38,54.94 59.4,50.68 57.39,46.45C55.06,41.49 52.56,36.62 50.34,31.61Z" style="fill:rgb(242,242,243);fill-rule:nonzero;"/>
        <path d="M45.25,169.68C44.26,166.74 43.74,163.66 43.32,160.59C49.94,162.78 56.49,165.19 63.17,167.15C63.66,170.74 63.99,174.36 63.92,177.98C63.76,187.39 64.01,196.81 63.62,206.21C63.18,206.02 62.3,205.63 61.86,205.43C54.74,194.33 49.44,182.16 45.25,169.68Z" style="fill:rgb(242,242,243);fill-rule:nonzero;"/>
        <path d="M63.61,59.42C76.74,58.88 89.9,59.03 103.01,59.85C134.76,59.74 166.52,60.14 198.26,59.6C198.12,80.65 198.18,101.71 198.23,122.77C153.38,122.68 108.54,122.89 63.7,122.66C63.56,122.65 63.29,122.61 63.16,122.59C63.78,118.42 64.05,114.22 63.94,110.01C63.63,93.15 64.15,76.28 63.61,59.42M82.27,92.9C78.58,95.78 74.8,101.16 78.3,105.64C83.79,112.8 97.19,107.88 96.28,98.69C101.25,97.43 105.34,93.2 105.94,88.04C107.22,79.67 97.69,72.35 89.87,75.14C82.85,77.37 79.1,86.29 82.27,92.9M153.75,92.35C155.76,96.57 160.53,98.58 164.96,98.97C164.58,106.55 174.05,110.66 180.12,107.23C183.1,105.66 185.69,102.12 184.52,98.64C183.37,95.01 179.55,93.53 176.4,92.07C177.68,89.3 178.04,86.07 177.14,83.14C175.23,77.45 168.84,73.64 162.93,74.75C155.47,76.21 150.45,85.37 153.75,92.35M133.77,88.61C128.67,89.13 123.47,88.99 118.46,87.84C118.25,90.99 119.39,93.89 121.31,96.34C126.42,99.8 133.53,100.12 138.35,95.9C140.21,93.41 142.15,90.34 141.11,87.09C138.58,86.97 136.26,88.36 133.77,88.61Z" style="fill:white;fill-rule:nonzero;"/>
        <path d="M84.87,81.99C85.41,79.66 89.34,79.22 90.18,81.5C90.74,83.61 91.7,85.56 92.66,87.52C90.69,89.14 90.03,86.8 89.16,85.43C87.08,87.37 83.55,84.33 84.87,81.99Z" style="fill:white;fill-rule:nonzero;"/>
        <path d="M157.39,80.51C159.27,78.78 163.07,80.21 162.59,82.95C162.72,85.13 159.52,86.75 157.87,85.25C156.17,84.31 156.18,81.83 157.39,80.51Z" style="fill:white;fill-rule:nonzero;"/>
        <path d="M163.49,85.62C165.07,84.76 166.36,88.74 163.94,88.01C162.29,88.86 162.36,85.99 163.49,85.62Z" style="fill:white;fill-rule:nonzero;"/>
        <path d="M63.17,167.15L63.67,167.24C108.52,167.53 153.38,167.3 198.23,167.35C198.16,180.3 198.16,193.24 198.23,206.18C153.36,206.21 108.49,206.15 63.62,206.21C64.01,196.81 63.76,187.39 63.92,177.98C63.99,174.36 63.66,170.74 63.17,167.15Z" style="fill:white;fill-rule:nonzero;"/>
        <path d="M82.27,92.9C79.1,86.29 82.85,77.37 89.87,75.14C97.69,72.35 107.22,79.67 105.94,88.04C105.34,93.2 101.25,97.43 96.28,98.69C91,99.48 85.27,97.46 82.27,92.9M84.87,81.99C83.55,84.33 87.08,87.37 89.16,85.43C90.03,86.8 90.69,89.14 92.66,87.52C91.7,85.56 90.74,83.61 90.18,81.5C89.34,79.22 85.41,79.66 84.87,81.99Z" style="fill:rgb(84,53,29);fill-rule:nonzero;"/>
        <path d="M153.75,92.35C150.45,85.37 155.47,76.21 162.93,74.75C168.84,73.64 175.23,77.45 177.14,83.14C178.04,86.07 177.68,89.3 176.4,92.07C174.1,96.21 169.73,98.93 164.96,98.97C160.53,98.58 155.76,96.57 153.75,92.35M157.39,80.51C156.18,81.83 156.17,84.31 157.87,85.25C159.52,86.75 162.72,85.13 162.59,82.95C163.07,80.21 159.27,78.78 157.39,80.51M163.49,85.62C162.36,85.99 162.29,88.86 163.94,88.01C166.36,88.74 165.07,84.76 163.49,85.62Z" style="fill:rgb(84,53,29);fill-rule:nonzero;"/>
        <path d="M133.77,88.61C136.26,88.36 138.58,86.97 141.11,87.09C142.15,90.34 140.21,93.41 138.35,95.9C135.82,94.13 133.25,91.81 129.95,91.87C126.5,91.86 123.9,94.42 121.31,96.34C119.39,93.89 118.25,90.99 118.46,87.84C123.47,88.99 128.67,89.13 133.77,88.61Z" style="fill:rgb(84,53,29);fill-rule:nonzero;"/>
        <path d="M31.13,90.8C32.37,98.66 33.56,106.54 34.22,114.47C33.39,114.24 31.72,113.78 30.89,113.56C30.97,105.97 30.59,98.38 31.13,90.8Z" style="fill:rgb(214,214,215);fill-rule:nonzero;"/>
        <path d="M30.91,156.4L32.05,156.8C35.64,158.08 39.29,159.16 42.88,160.44C42.99,160.48 43.21,160.55 43.32,160.59C43.74,163.66 44.26,166.74 45.25,169.68C49.44,182.16 54.74,194.33 61.86,205.43C51.47,201.52 41.07,197.61 30.83,193.3C30.96,181 30.81,168.7 30.91,156.4Z" style="fill:rgb(214,214,215);fill-rule:nonzero;"/>
        <path d="M121.31,96.34C123.9,94.42 126.5,91.86 129.95,91.87C133.25,91.81 135.82,94.13 138.35,95.9C133.53,100.12 126.42,99.8 121.31,96.34M128.48,93.24C128.87,94.71 131.69,94.68 132.93,94.13C132.81,92.38 129.64,92.34 128.48,93.24Z" style="fill:rgb(242,114,142);fill-rule:nonzero;"/>
        <path d="M164.96,98.97C169.73,98.93 174.1,96.21 176.4,92.07C179.55,93.53 183.37,95.01 184.52,98.64C185.69,102.12 183.1,105.66 180.12,107.23C174.05,110.66 164.58,106.55 164.96,98.97Z" style="fill:rgb(247,205,224);fill-rule:nonzero;"/>
        <path d="M82.27,92.9C85.27,97.46 91,99.48 96.28,98.69C97.19,107.88 83.79,112.8 78.3,105.64C74.8,101.16 78.58,95.78 82.27,92.9Z" style="fill:rgb(247,205,224);fill-rule:nonzero;"/>
        <path d="M128.48,93.24C129.64,92.34 132.81,92.38 132.93,94.13C131.69,94.68 128.87,94.71 128.48,93.24Z" style="fill:rgb(247,160,176);fill-rule:nonzero;"/>
        <path d="M30.89,113.56C31.72,113.78 33.39,114.24 34.22,114.47C34.41,114.53 34.81,114.64 35.01,114.69C36.44,130.12 39.72,145.29 42.88,160.44C39.29,159.16 35.64,158.08 32.05,156.8C30.58,156.12 31.01,154.32 30.84,153.04C30.85,139.88 30.82,126.72 30.89,113.56Z" style="fill:rgb(102,159,158);fill-rule:nonzero;"/>
        <path d="M35.01,114.69C44.4,117.28 53.75,120.05 63.16,122.59C63.29,122.61 63.56,122.65 63.7,122.66C63.46,137.52 63.49,152.38 63.67,167.24L63.17,167.15C56.49,165.19 49.94,162.78 43.32,160.59C43.21,160.55 42.99,160.48 42.88,160.44C39.72,145.29 36.44,130.12 35.01,114.69Z" style="fill:rgb(121,178,178);fill-rule:nonzero;"/>
        <path d="M63.7,122.66C108.54,122.89 153.38,122.68 198.23,122.77C198.24,137.63 198.23,152.49 198.23,167.35C153.38,167.3 108.52,167.53 63.67,167.24C63.49,152.38 63.46,137.52 63.7,122.66M94.47,127.74C88.64,128.67 84.9,135.18 87.39,140.62C89.91,145.67 96.05,146.37 100.9,147.77C103.52,148.29 106.71,149.85 106.58,152.99C105.15,158.44 96.39,159.3 93.72,154.43C92.3,152.51 91.21,148.45 88.04,149.87C84.94,151.12 86.02,155.24 87.57,157.37C91.66,163.52 100.38,163.8 106.75,161.66C113.14,159.61 115.75,150.71 111.4,145.6C107.22,141.4 100.79,141.64 95.69,139.25C94.08,138.53 92.68,136.58 93.65,134.84C95.3,132.23 98.9,131.78 101.67,132.53C105.07,133.41 105.39,138.26 108.83,138.95C112.55,138.47 112.57,133.8 110.53,131.5C106.75,126.84 99.91,126.38 94.47,127.74M129.45,127.68C123.53,128.85 119.18,134.1 118.14,139.89C116.54,147.5 118.45,157.17 125.98,160.96C133.68,164.65 144.97,163.25 149.2,155.04C152.4,148.62 152.38,140.41 148.79,134.14C144.86,127.71 136.36,125.99 129.45,127.68M152.88,130.97C155.23,136.89 159.79,141.63 162.65,147.3C163.66,151.66 162.32,156.29 163.4,160.66C164.12,163.49 168.83,163.52 169.9,160.91C170.79,156.48 169.61,151.89 170.53,147.49C173.33,142.4 177.01,137.84 179.86,132.77C180.32,131.75 181.05,130.57 180.56,129.43C180.06,126.86 175.93,126.41 174.78,128.77C171.91,132.83 169.56,137.23 166.8,141.37C163.95,137.14 161.67,132.53 158.6,128.46C156.79,125.88 151.91,127.81 152.88,130.97Z" style="fill:rgb(137,210,213);fill-rule:nonzero;"/>
        <path d="M131.23,133.39C134.89,132.28 139.4,133.03 141.75,136.28C144.79,140.52 144.9,146.36 143.17,151.14C141.79,154.86 137.94,157.52 133.92,157.04C128.74,157.06 125.25,151.91 125.04,147.13C124.39,141.98 125.81,135.39 131.23,133.39Z" style="fill:rgb(137,210,213);fill-rule:nonzero;"/>
        <path d="M94.47,127.74C99.91,126.38 106.75,126.84 110.53,131.5C112.57,133.8 112.55,138.47 108.83,138.95C105.39,138.26 105.07,133.41 101.67,132.53C98.9,131.78 95.3,132.23 93.65,134.84C92.68,136.58 94.08,138.53 95.69,139.25C100.79,141.64 107.22,141.4 111.4,145.6C115.75,150.71 113.14,159.61 106.75,161.66C100.38,163.8 91.66,163.52 87.57,157.37C86.02,155.24 84.94,151.12 88.04,149.87C91.21,148.45 92.3,152.51 93.72,154.43C96.39,159.3 105.15,158.44 106.58,152.99C106.71,149.85 103.52,148.29 100.9,147.77C96.05,146.37 89.91,145.67 87.39,140.62C84.9,135.18 88.64,128.67 94.47,127.74Z" style="fill:rgb(59,86,86);fill-rule:nonzero;"/>
        <path d="M129.45,127.68C136.36,125.99 144.86,127.71 148.79,134.14C152.38,140.41 152.4,148.62 149.2,155.04C144.97,163.25 133.68,164.65 125.98,160.96C118.45,157.17 116.54,147.5 118.14,139.89C119.18,134.1 123.53,128.85 129.45,127.68M131.23,133.39C125.81,135.39 124.39,141.98 125.04,147.13C125.25,151.91 128.74,157.06 133.92,157.04C137.94,157.52 141.79,154.86 143.17,151.14C144.9,146.36 144.79,140.52 141.75,136.28C139.4,133.03 134.89,132.28 131.23,133.39Z" style="fill:rgb(59,86,86);fill-rule:nonzero;"/>
        <path d="M152.88,130.97C151.91,127.81 156.79,125.88 158.6,128.46C161.67,132.53 163.95,137.14 166.8,141.37C169.56,137.23 171.91,132.83 174.78,128.77C175.93,126.41 180.06,126.86 180.56,129.43C181.05,130.57 180.32,131.75 179.86,132.77C177.01,137.84 173.33,142.4 170.53,147.49C169.61,151.89 170.79,156.48 169.9,160.91C168.83,163.52 164.12,163.49 163.4,160.66C162.32,156.29 163.66,151.66 162.65,147.3C159.79,141.63 155.23,136.89 152.88,130.97Z" style="fill:rgb(59,86,86);fill-rule:nonzero;"/>
    </g>
</svg>
